X: 31010
T: Packie Byrne's
R: mazurka
M: 3/4
K: Gmajor
|:DG|B2 B2 dB|c2 A2 DF|A2 A2 cA|B2 G2 DG|
B2 B2 dB|c2 A2 DF|A2 A2 cF|G2 G2:|
|:Bd|g2 g2 ag|f2 A2 AB|c2 c2 ed|B2 G2 Bd|
g2 g2 ag|f2 A2 AB|c2 c2 ed|G4:|

